X: 32
M: 4/4
L: 1/8
K: D
e2e2 A2A2 | [A2D2][A2D2] A,3z | [A2D2]FA B2A2 | [A2D2]FA B2A2 |
e2e2 A2A2 | D2D2 A,4 | D2FA B2[A2D2] | [AD]zz2 Dz z2 :|
|: D2FA B2[A2D2] | [A2D2]FA B2[A2D2] | c3B [A2D2][AF]A | [B2D2][A2D2] [A4D4] |


